!!!OTL: Der trunkene Bruder.
!!!ARE: Europa, Mitteleuropa, Deutschland
!!!SCT: A0345
!!!TXL: @@GMH
!!!YEM: Copyright 1995, estate of Helmut Schaffrath.
**kern	**text
!! Mixed meters:  4/2; 6/2
*M4/2	*
*met(c|)	*
*clefC4	*
*k[]	*
*d:dor	*
=1	=1
!LO:TX:a:t=dor.	!
1ryy	.
{1D	Nur
=2	=2
*lig	*
4D	ner-
4E	.
4F	.
4G	.
2A/	.
*Xlig	*
2A/	-riſch
=3	=3
1A	ſein
2B	iſt
*lig	*
1c	mein
=4-	=4-
.	.
4B	.
4A	.
2B	.
*Xlig	*
2B	ma-
=5	=5
*M6/2	*
1A	-nier,
2r}	.
{2d	nichts
2d	bhal-
2d	-ten
=6	=6
1c	ich
2d	be-
*lig	*
1f	-ge-
4e	.
4d	.
=7	=7
*M4/2	*
1e	.
*Xlig	*
1d}	-re.}
=8	=8
{1r	.
1D	So
=9	=9
*lig	*
4D	trink
4E	.
4F	.
4G	.
2A/	.
*Xlig	*
2A/	ich
=10	=10
1A	lie-
2B	-ber
*lig	*
1c	wein
=11-	=11-
.	.
4B	.
4A	.
2B	.
*Xlig	*
2B	dann
=12	=12
*M6/2	*
1A	bier,
2r}	.
{2d	der
2d	nar-
2d	-ren
=13	=13
1c	find
2d	man
*lig	*
1f	me-
4e	.
4d	.
=14	=14
*M4/2	*
1e	.
*Xlig	*
1d}	-re.}
=15	=15
{2r	.
2f	Wein
2.e	iſt
4d	mein
=16	=16
*lig	*
2c	freud
2B	.
2A	.
2c	in
*Xlig	*
=17	=17
*M6/2	*
2d	di-
2.e	.
4d	.
1d	.
2c#i	-ſer
=18	=18
0d	ʒeit,
2r}	.
{2A	ʒu
=19	=19
*M4/2	*
2A	wein
2A	bin
2A	ich
2A	ge-
=20	=20
1B	-ſchaf-
1A	-fen,
=21	=21
2r	.
2A	wein
2A	gibt
2A	mir
=22	=22
1c	můt
2r}	.
{2c	vnd
=23	=23
2c	friſcht
2c	das
1G	blůt,
=24	=24
2r	.
2G	wein
2G	macht
2G	mich
=25	=25
2.B	lu-
4c	-ſtig
1d	ſchla-
=26	=26
1A	-fen,
2r}	.
{2f	vol-
=27	=27
2f	-ſein
2f	bin
2e	ich
2d	ge-
=28	=28
1e	-ſchaf-
1dll}	-fen.
==	==
!!!GTL: Trink. und Zechlieder, incl. Fastnacht- u. Martinslieder
!!!AGN: Romanze, Ballade, Lied, Trinklied
!! Reutterliedlein 1535 No. 17.
!!!ONB: ESAC (Essen Associative Code) Database: ALTDEU
!!!AMT: irregular
!!!AIN: vox
!!!EED: Helmut Schaffrath
!!!EEV: 1.0
!!!RDF**kern: i = editorial accidental
!!!RDF**kern: l = terminal long
!!!AMD: Dorian
!!!URL-scan: https://rosdok.uni-rostock.de/mcrviewer/recordIdentifier/rosdok_ppn738218359/iview2/phys_0490.iview2?x=-495.6391625615763&y=132.6300492787268&scale=0.4629418472063854&rotation=0&layout=singlePageLayout&logicalDiv=log_0013
!!!ENC: Anna Maria Matuszewska
!!!EEV: 2024/13/03
*-	*-
